X:0840
T:Countess of Lothean's Reel.
M:C|
L:1/8
I: :| ||
Z:Jack Campin * www.campin.me.uk * 2009
K:D
f|d2dA FDAF|Eeed cABc|d2dA FDAg|fdec dDD:|
g|fdad fada|gebe gbeg|fdad fada|fdec dDD
g|fdad fada|gebe gbeg|fdec dBAG|FAdg fdd|]

